!!!!SEGMENT: pl-wnifc--3231-n_lada-kazimierz--kujawiak-poemat-muzyczny-op-21.krn
!!!cenid: 18xx:4006
!!!COM: Łada, Kazimierz
!!!COM-rismID: pe50044989
!!!CDT: 1824-1871
!!!CNT:
!!!OTL: Kujawiak/Poemat muzyczny op. 21
!!!PDT: 1860
!!!AGN:
!!!SMS-siglum: PL-Wnifc
!!!SMS-shelfmark: 3231/n
!!!SMS-shelfwork: W
!!!SMS-variant:
!!!SMS-altvar:
!!!NIFC-rismSourceID: 1001142662
!!!NIFC-rismChildID: 1001142662
!!!NIFC-islandoraID: nifc:212221
!!!URL-pdf-islandora: https://repozytorium.nifc.pl/islandora/object/nifc%3A212221/datastream/PDF/view
!!!URL-scan: https://polish.musicsources.pl/pl/lokalizacje/galeria/druki-muzyczne/16833 @EN{Scan on Polish Music Sources Website} @PL{Skany w portalu Dziedzictwo Muzyki Polskiej w otwartym dostępie}
!!!IIIF:
!!!ONB-nifc:
!!!AIN: 1 violn
!!!key: D
**kern	**dynam
*I"Skrzypce.	*
*I'vl	*
*ICstr	*
*Ivioln	*
*clefG2	*
*k[f#c#]	*
*D:	*
*M3/4	*
=1	=1
*^	*
!LO:TX:a:B:t=Allegro Moderato.	!	!
!LO:TX:t=P:problem: cyfry (aplikatura) zapisane później niż druk ołówkiem	!	!
12A/L 12e	4ryy	f
12A/ 12e	.	.
12A/J 12e	.	.
4A/ 4e	4ryy	.
8c#/L 8e	8ryy	.
!	!LO:TX:t=P:problem: VHV błędnie wyświetla unisono	!
8e/J	8e/	.
=2	=2	=2
!LO:TUP:b	!	!
12d/L 12a	4ryy	.
12d/ 12a	.	.
12d/J 12a	.	.
4d/ 4a	4ryy	.
8f#/L 8a	8ryy	.
!	!LO:TX:t=P:problem: VHV błędnie wyświetla unisono	!
8a/J	8a/	.
=3	=3	=3
!LO:TUP:a	!	!
12a\L 12ee	4ryy	.
12a\ 12ee	.	.
12a\J 12ee	.	.
4a\ 4ee	4ryy	.
8cc#\L 8ee	8ryy	.
!	!LO:TX:t=P:problem: VHV błędnie wyświetla unisono	!
8ee\J	8ee\	.
=4	=4	=4
!LO:TUP:a	!	!
12dd\L 12aa	4ryy	.
12dd\ 12aa	.	.
12dd\J 12aa	.	.
4dd\ 4aa	4ryy	.
8ff#\L 8aa	8ryy	.
!	!LO:TX:t=P:problem: VHV błędnie wyświetla unisono	!
8aa\J	8aa\	.
*v	*v	*
=5	=5
!LO:TUP:a	!
12aa\L	.
12aa\	.
12aa\J	.
4aa\	.
8ccc#\L	.
8eee\J	.
!LO:LB:g=original	!
=6	=6
!LO:TX:t=P:problem: 2 i 4 zapisane ołówkiem	!
!LO:TX:a:t=2:color=grey	!
8ddd\L	.
!LO:TX:a:t=4:color=grey	!
8fff#\J	.
2aaa\	.
=7	=7
8aaa\L	.
!LO:TX:b:i:t=rallent.	!
8ggg#X\J	.
4eee\	.
8eee\L	.
8ggg#\J	.
=8	=8
2.aaa\	.
=9	=9
*^	*
!LO:TX:a:B:t=a Tempo	!	!
12A/L 12e	4ryy	.
12A/ 12e	.	.
12A/J 12e	.	.
4A/ 4e	4ryy	.
8c#/L 8e	8ryy	.
!	!LO:TX:t=P:problem: VHV błędnie wyświetla unisono	!
8e/J	8e/	.
=10	=10	=10
12d/L 12a	4ryy	.
12d/ 12a	.	.
12d/J 12a	.	.
4d/ 4a	4ryy	.
8f#/L 8a	8ryy	.
!	!LO:TX:t=P:problem: VHV błędnie wyświetla unisono	!
8a/J	8a/	.
=11	=11	=11
!LO:TUP:a	!	!
12a\L 12ee	4ryy	.
12a\ 12ee	.	.
12a\J 12ee	.	.
4a\ 4ee	4ryy	.
8cc#\L 8ee	8ryy	.
!	!LO:TX:t=P:problem: VHV błędnie wyświetla unisono	!
8ee\J	8ee\	.
=12	=12	=12
!LO:TUP:a	!	!
12dd\L 12aa	4ryy	.
12dd\ 12aa	.	.
12dd\J 12aa	.	.
4dd\ 4aa	4ryy	.
8ff#\L 8aa	8ryy	.
!	!LO:TX:t=P:problem: VHV błędnie wyświetla unisono	!
8aa\J	8aa\	.
*v	*v	*
=13	=13
!LO:TUP:a	!
12aa\L	.
12aa\	.
12aa\J	.
4aa\	.
8ccc#\L	.
8eee\J	.
=14	=14
8ddd\L	.
8fff#\J	.
(4.aaa\	.
8bbb\)	.
=15	=15
8aaa\L	.
!LO:TX:b:i:t=rallent.	!
8ggg#X\J	.
4eee\	.
8ggg#\L	.
8bbb\J	.
!LO:LB:g=original	!
=16	=16
2.aaa\	.
=17	=17
!LO:TX:a:B:t=a Tempo	!
!LO:TUP:a	!
12ee\L 12gg	mf
12ee\ 12gg	.
12ee\J 12gg	.
4ee\ 4gg	.
8dd\L 8ff#	.
8a\J 8ee	.
=18	=18
!LO:TUP:a	!
12dd\L 12ff#	.
12dd\ 12ff#	.
12dd\J 12ff#	.
4dd\ 4ff#	.
8a\L 8ee	.
8f#\J 8dd	.
=19	=19
!LO:TUP:a	!
12a\L 12ee	.
12a\ 12ee	.
12a\J 12ee	.
4a\ 4ee	.
8f#/L 8dd	.
8e/J 8cc#	.
=20	=20
!LO:TUP:b	!
12f#/L 12dd	.
12f#/ 12dd	.
12f#/J 12dd	.
4f#/ 4dd	.
8f#/L 8a	.
8d/J 8f#	.
!LO:LB:g=original	!
=21	=21
!LO:TUP:b	!
12e/L 12g	.
12e/ 12g	.
12e/J 12g	.
4e/ 4g	.
8d/L 8f#	.
8c#/J 8e	.
=22	=22
!LO:TUP:b	!
12d/L 12f#	.
12d/ 12f#	.
12d/J 12f#	.
4d/ 4f#	.
8c#/L 8e	.
8B/J 8d	.
=23	=23
!LO:TUP:b	!
12c#/L 12e	.
12c#/ 12e	.
12c#/J 12e	.
4c#/ 4e	.
8d/L 8f#	.
8B/J 8g#X	.
=24	=24
(2c#/ 2a	.
4a/)	.
=25	=25
!LO:TUP:a	!
12ee\L 12gg	.
12ee\ 12gg	.
12ee\J 12gg	.
4ee\ 4gg	.
8dd\L 8ff#	.
8a\J 8ee	.
!LO:LB:g=original	!
=26	=26
!LO:TUP:a	!
12dd\L 12ff#	.
12dd\ 12ff#	.
12dd\J 12ff#	.
4dd\ 4ff#	.
8a\L 8ee	.
8f#\J 8dd	.
=27	=27
!LO:TUP:a	!
12a\L 12ee	.
12a\ 12ee	.
12a\J 12ee	.
4a\ 4ee	.
8f#/L 8dd	.
8e/J 8cc#	.
=28	=28
!LO:TUP:b	!
12f#/L 12dd	.
12f#/ 12dd	.
12f#/J 12dd	.
4f#/ 4dd	.
8f#/L 8a	.
8d/J 8f#	.
=29	=29
!LO:TUP:b	!
12e/L 12g	.
12e/ 12g	.
12e/J 12g	.
4e/ 4g	.
8d/L 8f#	.
8c#/J 8e	.
=30	=30
!LO:TUP:b	!
12d/L 12f#	.
12d/ 12f#	.
12d/J 12f#	.
4d/ 4f#	.
8c#/L 8e	.
8B/J 8d	.
!LO:LB:g=original	!
=31	=31
!LO:TUP:b	!
12c#/L 12e	.
12c#/ 12e	.
12c#/J 12e	.
4c#/ 4e	.
8d/L 8f#	.
8B/J 8g#X	.
=32	=32
2.c#/ 2.a	.
=33	=33
!LO:TX:t=P:problem: 2 i 3 zapisane ołówkiem	!
!LO:TX:a:t=3:color=grey	!
(8qb/	.
!LO:TX:a:t=2:color=grey	!
2.a/)	.
=34	=34
(8qb/	.
2.a/)	.
=35	=35
(8qb/	.
2.a/)	.
=36	=36
(8qb/	.
4a/)	.
(8qb/	.
4a/)	.
(8qb/	.
4a/)	.
=37	=37
(8qb/	.
4a/)	.
(8qb/	.
4a/)	.
(8qb/	.
4a/)	.
!LO:PB:g=original	!
=38||	=38||
!LO:TX:b:i:t=Sielanka	!
8.dd\L	.
16ff#\Jk	.
2aa\	.
=39	=39
8.gg#X\L	.
16ee\Jk	.
2aa\	.
=40	=40
8.ff#\L	.
16dd\Jk	.
4.aa\	.
8ff#\	.
=41	=41
8eeM\L	.
8cc#\J	.
2a/	.
=42	=42
!LO:TX:t=P:problem:d zapisane ołówkiem	!
!LO:TX:a:i:t=d:color=grey	!
8.cc#\L	.
16ff#\Jk	.
2aa\	.
=43	=43
8.gg#X\L	.
16ee\Jk	.
2aa\	.
!LO:LB:g=original	!
=44	=44
8ff#\L	.
8dd\J	.
4.aa\	.
8ff#\	.
=45	=45
8eeM\L	.
8cc#\J	.
2a/	.
=46	=46
8b\L	.
8dd\J	.
4cc#\	.
4b\	.
=47	=47
8cc#\L	.
8a\J	.
2ee\	.
=48	=48
8b\L	.
8dd\J	.
4cc#\	.
4b\	.
=49	=49
8cc#/L	.
8a/J	.
2e/	.
!LO:LB:g=original	!
=50	=50
!LO:TUP:a:problem:klamra łukowa	!
12b\L	.
12cc#\	.
12dd\J	.
4cc#\	.
4b\	.
=51	=51
!LO:TUP:a:problem:klamra łukowa	!
12cc#\L	.
12a\	.
12cc#\J	.
2ee\	.
=52	=52
!LO:TUP:a:problem:klamra łukowa	!
12b\L	.
12cc#\	.
12dd\J	.
4cc#\	.
4b\	.
=53	=53
[2.a/	.
=54	=54
2.a/_	.
=55	=55
2.a/]	.
=56	=56
8.dd\L	.
16ff#\Jk	.
2aa\	.
!LO:LB:g=original	!
=57	=57
8.gg#X\L	.
16ee\Jk	.
2aa\	.
=58	=58
!LO:TUP:a:problem:klamra łukowa	!
12ff#\L	.
12dd\	.
12ff#\J	.
4.aa\	.
8ff#\	.
=59	=59
8eeM\L	.
8cc#\J	.
2a/	.
=60	=60
8.dd\L	.
16ff#\Jk	.
2aa\	.
=61	=61
*Xtuplet	*
!LO:TUP:a:problem:klamra łukowa	!
12gg#X\L	.
12ee\	.
12gg#\J	.
2aa\	.
=62	=62
(12ff#\L	.
12dd\)	.
12ff#\J	.
4.aa\	.
8ff#\	.
!LO:LB:g=original	!
=63	=63
8eeM\L	.
8cc#\J	.
2a/	.
=64	=64
!LO:TUP:a:problem:klamra łukowa	!
12b\L	.
12cc#\	.
12dd\J	.
4cc#m\	.
4b\	.
=65	=65
(12cc#\L	.
12a\)	.
12cc#'\J	.
2ee\	.
=66	=66
12b'\L	.
(12cc#\	.
12dd\J)	.
4cc#\	.
4b\	.
=67	=67
8cc#m\L	.
8a\J	.
2e/	.
=68	=68
12b'\L	.
(12cc#\	.
12dd\J)	.
4cc#m\	.
4b\	.
!LO:LB:g=original	!
=69	=69
(12cc#\L	.
12a\)	.
12cc#'\J	.
2ee\	.
=70	=70
12b'\L	.
(12cc#\	.
12dd\J)	.
4cc#m\	.
4b\	.
=71	=71
[2.a/	.
=72	=72
2.a/_	.
=73	=73
2.a/]	.
=74||	=74||
*k[b-]	*
!LO:TX:a:t=4te._:dur=4e2h:ext=ud:problem:text with line extensions	!
!LO:TX:a:B:t=Più Lento.	!
8d/L	mf
8f/J	.
2a/	.
=75	=75
8g/L	.
8g/J	.
2a/	.
!LO:LB:g=original	!
=76	=76
!LO:TX:a:t=4te._:dur=13e6q4h:ext=ud:problem:text with line extensions	!
12d'/L	.
(12e/	.
12f/J)	.
4a/	.
4fM</	.
=77	=77
2.e/	.
=78	=78
8d/L	.
(8qe/	.
8f/J)	.
2a/	.
=79	=79
8g/L	.
8g/J	.
2a/	.
=80	=80
12d'/L	.
(12e/	.
12f/J)	.
4a/	.
4f/	.
=81	=81
2.e/	.
=82	=82
!LO:TUP:a:problem:klamra łukowa	!
12e/L	.
12f/	.
12g/J	.
4f/	.
4e/	.
!LO:LB:g=original	!
=83	=83
!LO:TX:a:t=4te._:dur=2s9e6q4h:ext=ud:problem:text with line extensions	!
8.dM/L	.
16c#X/Jk	.
2d/	.
=84	=84
8A/L	.
8c#X/J	.
4e/	.
4a/	.
=85	=85
2.a/	.
=86	=86
!LO:TUP:a:problem:klamra łukowa	!
12e/L	.
12f/	.
12g/J	.
4f/	.
4e/	.
=87	=87
8.dM/L	.
16c#X/Jk	.
2d/	.
=88	=88
8c#X/L	.
8e/J	.
4Bn/	.
4c#/	.
=89	=89
2.A/	.
!LO:LB:g=original	!
=90	=90
!LO:TUP:b:problem:klamra łukowa	!
!LO:TX:a:t=4te._:dur=2s10e6q3h:ext=ud:problem:text with line extensions	!
12e/L	.
12f/	.
12g/J	.
4f/	.
4e/	.
=91	=91
8.dM</L	.
16c#X/Jk	.
2d/	.
=92	=92
8A/L	.
8c#X/J	.
4e/	.
!LO:TX:t=P:problem: 4 zapisane ołówkiem	!
!LO:TX:a:t=4:color=grey	!
4a/	.
=93	=93
!LO:TX:t=P:problem: 2 zapisane ołówkiem	!
!LO:TX:a:t=2:color=grey	!
2.a/	.
=94	=94
!LO:TUP:a:problem:klamra łukowa	!
12a\L	f
12b-\	.
12cc\J	.
4b-\	.
4a/	.
=95	=95
8.gM</L	.
16f#X/Jk	.
2g/	.
!LO:PB:g=original	!
=96	=96
!LO:TX:a:t=4te._:dur=4e2h:ext=ud:problem:text with line extensions	!
12g/L	.
12a/	.
12b-/J	.
4a/	.
4g/	.
=97	=97
8.fM</L	.
16e/Jk	.
2f/	.
=98	=98
!LO:TUP:b:problem:klamra łukowa	!
12e/L	.
12f/	.
12g/J	.
4f/	.
4e/	.
=99	=99
!	!LO:HP:b:t=dimin. e rallent.
8.d/L	>
16c#X/Jk	.
4.d/	.
8B-/	.
=100	=100
12A/L	.
12G#X/	.
12A/J	.
4f/	.
4e/	.
=101	=101
2.d/	.
!LO:LB:g=original	!
=102||	=102||
*k[bnf#c#]	*
!LO:TX:a:B:t=Più mosso.	!
(>8a\L	f
8cc#\J	.
4ee\	.
4ff#\)	.
=103	=103
(2dd\	.
8ff#\L	.
8aa\J)	.
=104	=104
(8aa\L	.
8ccc#\J	.
4eee\	.
4fff#\)	.
=105	=105
(2ddd\	.
8bb\L	.
8gg\J)	.
=106	=106
(8ff#\L	.
8aa\J	.
4ee\	.
4ff#\)	.
=107	=107
(2dd\	.
8b/L	.
8g/J)	.
!LO:LB:g=original	!
=108	=108
(8f#/L	.
8a/J	.
4e/	.
4f#/)	.
=109	=109
(2d/	.
8f#/L	.
8a/J)	.
=110	=110
(8a/L	.
8cc#/J	.
4ee\	.
4ff#\)	.
=111	=111
(2dd\	.
8ff#\L	.
8aa\J)	.
=112	=112
(8aa\L	.
8ccc#\J	.
4eee\	.
4fff#\)	.
=113	=113
(2ddd\	.
8bb\L	.
8gg\J)	.
=114	=114
(8ff#\L	.
8aa\J	.
4ee\	.
4ff#\)	.
!LO:LB:g=original	!
=115	=115
(2dd\	.
8b/L	.
8g/J)	.
=116	=116
(8f#/L	.
8a/J	.
4e/	.
4f#/)	.
=117	=117
2.d/	.
=118	=118
!	!LO:HP:a:t=dimin.
(8f#/L	>
8a/J	.
4e/	.
4f#/	.
=119	=119
2.d/)	.
=120	=120
(8f#/L	.
8a/J	.
4e/	.
8g/L	.
8f#/J)	.
=121	=121
[2.d/	.
=122	=122
2.d/_	.
=123	=123
2.d;/]	.
!LO:LB:g=original	!
=124||	=124||
!LO:TX:a:B:t=Più mosso.	!
!LO:TX:t=P:problem: jeden łuk zapisany ołówkiem	!
((4cc#m\	f
8a#X/L	.
8f#/)	.
8a#/	.
8cc#/J)	.
=125	=125
8dd\L	.
8b\J	.
4.ff#\	.
8dd\	.
=126	=126
(4cc#m\	.
8a#X/L	.
8f#/)	.
8a#/	.
8cc#/J	.
=127	=127
8dd\L	.
8b\J	.
(4.ff#\	.
8dd\)	.
=128	=128
(4cc#m\	.
8a#X/L	.
8f#/)	.
8a#/	.
8cc#/J	.
!LO:LB:g=original	!
=129	=129
8dd\L	.
8b\J	.
(4.ff#\	.
8bb\)	.
=130	=130
8aa#X\L	.
!	!LO:HP:b:t=dimin.
8ff#\J	>
(4.gg\	.
8ee\)	.
=131	=131
8ff#\L	.
8dd\J	.
(4.ee\	.
8cc#\)	.
=132	=132
((8dd\L	.
8b\)	.
(8dd\	.
8b\)	.
(8cc#\	.
8a#X\J))	.
=133	=133
4.b\	.
8dd\L	.
8ff#\	.
8bb\J	.
=134	=134
!LO:TX:a:B:t=a Tempo	!
(4ccc#\	.
8aa#X\L	.
8ff#\)	.
8aa#\	.
8ccc#\J	.
!LO:LB:g=original	!
=135	=135
8ddd\L	.
8bb\J	.
(4.fff#\	.
8ddd\)	.
=136	=136
(4ccc#m\	.
8aa#X\L	.
8ff#\)	.
8aa#\	.
8ccc#\J	.
=137	=137
8ddd\L	.
8bb\J	.
(4.fff#\	.
8ddd\)	.
=138	=138
(4ccc#m\	.
8aa#X\L	.
8ff#\)	.
8aa#\	.
8ccc#\J	.
=139	=139
8ddd\L	.
8bb\J	.
(4.fff#\	.
8bbb\)	.
!LO:LB:g=original	!
=140	=140
8aaa#X\L	.
8fff#\J	.
(4.ggg\	.
8eee\)	.
=141	=141
8fff#\L	.
8ddd\J	.
(4.eee\	.
8ccc#\)	.
=142	=142
(8ddd\L	.
8bb\	.
8ddd\	.
8bb\	.
8ccc#\	.
8aa#X\J)	.
=143	=143
2bb\	.
(8ccc#\L	.
8aa#X\J)	.
=144	=144
2bb\	.
(8ccc#\L	.
8aa#X\J)	.
=145	=145
(4.bb\	.
8ddd\L)	.
8ccc#\	.
8aa#X\J	.
!LO:LB:g=original	!
=146	=146
(4.bb\	.
8ddd\L)	.
8ccc#\	.
8aa#X\J	.
=147	=147
!	!LO:HP:b:t=dimin.
(8bbM\L	>
8aa#X\	.
8bb\	.
8ddd\	.
8ccc#\	.
8aa#\J)	.
=148	=148
(8bbM\L	.
8aa#X\	.
8bb\	.
8ddd\	.
8ccc#\	.
8aa#\J)	.
=149	=149
[2.bbT\	.
=150	=150
2.bbT\]	.
=151	=151
2.dddT\	.
=152	=152
2.fff#t\	.
=153	=153
[2.bbb\	.
=154	=154
2.bbb;\]	.
!LO:PB:g=original	!
=155||	=155||
*k[cnf#]	*
*^	*
!LO:TX:a:B:t=Più presto.	!	!
8bb/L	8G\ 8d 8b	f
8aa/J	8ryy	.
4ggM/	8G\ 8d 8b	.
.	8ryy	.
!LO:TX:t=P:problem: łuk zapisany ołówkiem	!	!
!LO:S:color=grey	!	!
(8ff#/L	4ryy	.
8ee/J)	.	.
=156	=156	=156
8ee/L	8A\ 8e	.
8dd/J	8ryy	.
4ccM/	8A\ 8e	.
.	8ryy	.
!LO:TX:t=P:problem: łuk zapisany ołówkiem	!	!
!LO:S:color=grey	!	!
(8a/L	4ryy	.
8g/J)	.	.
=157	=157	=157
8f#/L	8A\	.
8ee/J	8ryy	.
4ddM/	8A\ 8f#	.
.	8ryy	.
!LO:TX:t=P:problem: łuk zapisany ołówkiem	!	!
!LO:S:color=grey	!	!
(8cc/L	4ryy	.
8f#/J)	.	.
=158	=158	=158
8g/L	8B\	.
8ee/J	8ryy	.
4ddM/	8B\ 8g	.
.	8ryy	.
!LO:TX:t=P:problem: łuk zapisany ołówkiem	!	!
!LO:S:color=grey	!	!
(8b/L	4ryy	.
8g/J)	.	.
=159	=159	=159
8bb/L	8G\ 8d 8b	.
8aa/J	8ryy	.
4ggM/	8G\ 8d 8b	.
.	8ryy	.
!LO:TX:t=P:problem: łuk zapisany ołówkiem	!	!
!LO:S:color=grey	!	!
(8ff#/L	4ryy	.
8ee/J)	.	.
=160	=160	=160
8ee/L	8A\ 8e	.
8dd/J	8ryy	.
4ccM/	8A\ 8e	.
.	8ryy	.
8a/L	4ryy	.
8g/J	.	.
!LO:LB:g=original	!	!
=161	=161	=161
8f#/L	8A\	.
8ee/J	8ryy	.
4ddM/	8A\ 8f#	.
.	8ryy	.
8cc/L	4ryy	.
8a/J	.	.
=162	=162	=162
4.g/	8B\	.
.	8ryy	.
.	2ryy	.
8b/L	.	.
8dd/	.	.
8gg/J	.	.
=163	=163	=163
8bb/L	8G\ 8d 8b	.
8aa/J	8ryy	.
4ggM/	8G\ 8d 8b	.
.	8ryy	.
8ff#/L	4ryy	.
8ee/J	.	.
=164	=164	=164
8ee/L	8A\ 8e	.
8dd/J	8ryy	.
4ccM/	8A\ 8e	.
.	8ryy	.
8a/L	4ryy	.
8g/J	.	.
=165	=165	=165
8f#/L	8A\	.
8ee/J	8ryy	.
4ddM/	8A\ 8f#	.
.	8ryy	.
8cc/L	4ryy	.
8f#/J	.	.
=166	=166	=166
8g/L	8B\	.
8ee/J	8ryy	.
4ddM/	8B\ 8g	.
.	8ryy	.
8b/L	4ryy	.
8g/J	.	.
=167	=167	=167
8bb/L	8G\ 8d 8b	.
8aa/J	8ryy	.
4ggM/	8G\ 8d 8b	.
.	8ryy	.
8ff#/L	4ryy	.
8ee/J	.	.
!LO:LB:g=original	!	!
=168	=168	=168
8ee/L	8A\ 8e	.
8dd/J	8ryy	.
4ccM/	8A\ 8e	.
.	8ryy	.
8a/L	4ryy	.
8g/J	.	.
=169	=169	=169
8f#/L	8A\	.
8ee/J	8ryy	.
4ddM/	8A\ 8f#	.
.	8ryy	.
8cc/L	4ryy	.
8a/J	.	.
=170	=170	=170
(4.g/	8B\	.
.	8ryy	.
.	4ryy	.
8b/L	.	mp
8dd/	4ryy	.
8gg/J)	.	.
*v	*v	*
=171	=171
(8ee\L	.
8gg\J)	.
2dd\	.
=172	=172
((8ee\L	.
8gg\)	.
(8dd\	.
8gg\)	.
(8dd\	.
8gg\J))	.
=173	=173
(8ee\L	.
8gg\J)	.
2dd\	.
=174	=174
(>8qdd/	mf
!LO:TX:a:t=0	!
8eee\L)	.
16r	.
16ddd\Jk	.
4cccM\	.
8bb\L	.
8aa\J	.
!LO:LB:g=original	!
=175	=175
(>8qb/	.
8bb\L)	.
16r	.
16aa\Jk	.
4ggM\	.
8ff#\L	.
8ee\J	.
=176	=176
(>8qf#/	.
8ff#\L)	.
16r	.
16ee\Jk	.
4ddM\	.
8cc\L	.
8a\J	.
=177	=177
(8qd/	.
8b/L)	.
8a/	.
8g/	.
8f#/	.
8e/	.
8d/J	.
=178	=178
(4.g/	.
8b\L	.
8dd\	.
8gg\J)	.
=179	=179
8ee\L	.
8gg\J	.
2dd\	.
=180	=180
((8ee\L	.
8gg\)	.
(8dd\	.
8gg\)	.
(8dd\	.
8gg\J))	.
=181	=181
8ee\L	.
8gg\J	.
2dd\	.
!LO:LB:g=original	!
=182	=182
*^	*
!LO:TX:b:t=2:color=grey	!LO:TX:a:t=4:color=grey	!
!LO:TX:t=P:problem: 2 i 4 zapisane ołówkiem	!	!
8eee/L	8e\ 8b 8gg#X	ff
!LO:TX:t=P:problem: 4 zapisane ołówkiem	!	!
!LO:TX:b:t=4:color=grey	!	!
8ddd/J	8ryy	.
4cccM/	8a\ 8ee	.
.	8ryy	.
!LO:TX:t=P:problem: ' i łuk legato zapisany ołówkiem	!	!
!LO:ART:color=grey	!	!
!LO:S:color=grey	!	!
(8bb'/L	4ryy	.
!LO:ART:color=grey	!	!
8aa'/J)	.	.
*v	*v	*
=183	=183
8d/L 8a 8ff# 8ddd	.
8ccc/J	.
4gM/ 4dd 4bb	.
!!LO:TX:t=P:problem: ' i łuk legato zapisany ołówkiem	!	!
!LO:ART:color=grey	!
!LO:S:color=grey	!
(8aa'/L	.
!LO:ART:color=grey	!
8gg'/J)	.
=184	=184
8B/L 8f# 8dd#X 8bb	.
8aa/J	.
4eM/ 4b 4gg	.
!!LO:TX:t=P:problem: łuk legato zapisany ołówkiem	!	!
!LO:S:color=grey	!
(8ff#/L	.
8ee/J)	.
=185	=185
8A/L 8e 8cc#X 8aa	.
8gg/J	.
4dM/ 4a 4ff#	.
!LO:TX:t=P:problem: łuk zapisany ołówkiem	!
!LO:S:color=grey	!
(8ee/L	.
8dd/J)	.
=186	=186
*^	*
8gg/L	8G\ 8d 8b	.
8aa/J	8ryy	.
4ff#m/	8d\ 8cc	.
.	8ryy	.
!LO:TX:t=P:problem: łuk zapisany ołówkiem	!	!
!LO:S:color=grey	!	!
(8ee/L	4ryy	.
8dd/J)	.	.
=187	=187	=187
8gg/L	8G\ 8d 8b	.
8aa/J	8ryy	.
4ff#m/	8d\ 8cc	.
.	8ryy	.
!LO:TX:t=P:problem: łuk zapisany ołówkiem	!	!
!LO:S:color=grey	!	!
(8ee/L	4ryy	.
8dd/J)	.	.
!LO:LB:g=original	!	!
=188	=188	=188
8gg/L	8G\ 8d 8b	.
8aa/J	8ryy	.
4ff#m/	8d\ 8cc	.
.	8ryy	.
8ee/L	4ryy	.
8dd/J	.	.
=189	=189	=189
8gg/L	8G\ 8d 8b	.
8aa/J	8ryy	.
4ff#m/	8d\ 8cc	.
.	8ryy	.
8ee/L	4ryy	.
8dd/J	.	.
*v	*v	*
=190	=190
(8b\L 8gg	.
8bb\J)	.
2ddT\ 2ddd	.
=191	=191
(8b\L 8gg	.
8bb\J)	.
2ddT\ 2ddd	.
=192	=192
(8b\L 8gg	.
8bb\J)	.
2ddT\ 2ddd	.
=193	=193
(8b\L 8gg	.
8bb\J)	.
4ddT\ 4ddd	.
8cc#X\L 8ccc#X	.
8ccn\J 8cccn	.
=194	=194
*^	*
8bb/L	8G\ 8d 8b	.
8aa/J	8ryy	.
4ggM/	8G\ 8d 8b	.
.	8ryy	.
8ff#/L	4ryy	.
8ee/J	.	.
!LO:LB:g=original	!	!
=195	=195	=195
8ee/L	8A\ 8e	.
8dd/J	8ryy	.
4ccM/	8A\ 8e	.
.	8ryy	.
8a/L	4ryy	.
8g/J	.	.
=196	=196	=196
8f#/L	8A\	.
8ee/J	8ryy	.
4ddM/	8A\ 8f#	.
.	8ryy	.
8cc/L	4ryy	.
8f#/J	.	.
=197	=197	=197
8g/L	8B\	.
8ee/J	8ryy	.
4ddM/	8B\ 8g	.
.	8ryy	.
8b/L	4ryy	.
8g/J	.	.
=198	=198	=198
8bb/L	8G\ 8d 8b	.
8aa/J	8ryy	.
4ggM/	8G\ 8d 8b	.
.	8ryy	.
8ff#/L	4ryy	.
8ee/J	.	.
=199	=199	=199
8ee/L	8A\ 8e	.
8dd/J	8ryy	.
4ccM/	8A\ 8e	.
.	8ryy	.
8a/L	4ryy	.
8g/J	.	.
=200	=200	=200
8f#/L	8A\	.
8ee/J	8ryy	.
4ddM/	8A\ 8f#	.
.	8ryy	.
8cc/L	4ryy	.
8f#/J	.	.
*v	*v	*
=201	=201
4B/ 4g	.
4G\ 4d 4b 4gg	.
4r;	.
!LO:LB:g=original	!
=202||	=202||
*k[f#c#]	*
!LO:TX:a:B:t=a Tempo.	!
8.dd\L	mf
16ff#\Jk	.
2aa\	.
=203	=203
8gg#X\L	.
8ee\J	.
2aa\	.
=204	=204
!LO:TX:t=P:problem:dźwięk poprawiony olówkiem	!
!LO:TX:t=P:problem: F zapisane ołówkiem	!
!LO:TX:a:t=F:color=grey	!
8ee\L	.
8dd\J	.
4.aa\	.
8ff#\	.
=205	=205
8ee\L	.
8cc#\J	.
2a/	.
=206	=206
8.dd\L	.
16ff#\Jk	.
2aa\	.
=207	=207
8gg#X\L	.
8ee\J	.
2aa\	.
=208	=208
8ff#\L	.
8dd\J	.
4.aa\	.
8ff#\	.
=209	=209
!LO:TX:t=P:problem: dźwięki ee i cc poprawione ołówkiem	!
!LO:TX:t=P:problem: litera e i c zapisana ołówkiem	!
!LO:TX:a:t=e:color=grey	!
8cc#/L	.
!LO:TX:a:t=c:color=grey	!
8a/J	.
2a/	.
!LO:LB:g=original	!
=210	=210
*tuplet	*
!LO:TUP:a:problem:klamra łukowa	!
12b\L	.
12cc#\	.
12dd\J	.
4cc#m\	.
4b\	.
=211	=211
8cc#\L	.
8a\J	.
2ee\	.
=212	=212
*Xtuplet	*
!LO:TUP:a:problem:klamra łukowa	!
12b\L	.
12cc#\	.
12dd\J	.
4cc#m\	.
4b\	.
=213	=213
8cc#/L	.
8a/J	.
2e/	.
=214	=214
!LO:TUP:a:problem:klamra łukowa	!
12b\L	.
12cc#\	.
12dd\J	.
4cc#m\	.
4b\	.
=215	=215
!LO:TUP:a:problem:klamra łukowa	!
12cc#\L	.
12a\	.
12cc#\J	.
2ee\	.
=216	=216
!LO:TUP:a:problem:klamra łukowa	!
12b\L	.
12cc#\	.
12dd\J	.
4cc#m\	.
4b\	.
=217	=217
[2.a/	.
!LO:PB:g=original	!
=218	=218
2.a/_	.
=219	=219
2.a/]	.
=220	=220
!LO:N:n=1:vis=2:head=rhombus:harmonic	!
8rg\L 8ddd	.
!LO:N:n=1:vis=2:head=rhombus:harmonic	!
8rb\J 8fff#	.
!LO:N:n=1:vis=2:head=rhombus:harmonic	!
2rdd\ 2aaa	.
=221	=221
!LO:N:n=2:vis=2:head=rhombus:harmonic	!
8rg#X\L 8rcc# 8ggg#X	.
!LO:N:n=1:vis=2:head=rhombus:harmonic	!
8ree\J 8eee	.
!LO:N:n=1:vis=2:head=rhombus:harmonic	!
2rdd\ 2fff#	.
=222	=222
!LO:N:n=1:vis=2:head=rhombus:harmonic	!
8rb\L 8fff#	.
!LO:N:n=1:vis=2:head=rhombus:harmonic	!
8rg\J 8ddd	.
!LO:N:n=1:vis=2:head=rhombus:harmonic	!
4.rdd\ 4.aaa	.
!LO:N:n=1:vis=2:head=rhombus:harmonic	!
8rb\ 8fff#	.
=223	=223
!LO:N:n=2:vis=2:head=rhombus:harmonic	!
8re\L 8ra 8eee	.
!LO:N:n=2:vis=2:head=rhombus:harmonic	!
8rc#\J 8rf# 8ccc#	.
!LO:N:n=2:vis=2:head=rhombus:harmonic	!
2rA\ 2rd 2aa	.
=224	=224
*8va	*
!LO:N:n=2:vis=2:head=rhombus:harmonic	!
8rddd\L 8rggg 8dddd	.
!LO:N:n=2:vis=2:head=rhombus:harmonic	!
8rfff#\J 8rbbb 8ffff#	.
!LO:N:n=2:vis=2:head=rhombus:harmonic	!
2raaa\ 2rdddd 2aaaa	.
=225	=225
!LO:N:n=2:vis=2:head=rhombus:harmonic	!
8rggg#X\L 8rcccc# 8gggg#X	.
!LO:N:n=2:vis=2:head=rhombus:harmonic	!
8reee\J 8raaa 8eeee	.
!LO:N:n=2:vis=2:head=rhombus:harmonic	!
2raaa\ 2rdddd 2aaaa	.
=226	=226
!LO:N:n=2:vis=2:head=rhombus:harmonic	!
8rfff#\L 8rbbb 8ffff#	.
!LO:N:n=2:vis=2:head=rhombus:harmonic	!
8rddd\J 8rggg 8dddd	.
!LO:N:n=2:vis=2:head=rhombus:harmonic	!
4.raaa\ 4.rdddd 4.aaaa	.
!LO:N:n=2:vis=2:head=rhombus:harmonic	!
8rfff#\ 8rbbb 8ffff#	.
!LO:LB:g=original	!
=227	=227
!LO:N:n=1:vis=2:head=rhombus:harmonic	!
8raaa\L 8eeee	.
!LO:N:n=1:vis=2:head=rhombus:harmonic	!
8rfff#\J 8cccc#	.
!LO:N:n=1:vis=2:head=rhombus:harmonic	!
2rddd\ 2aaa	.
=228	=228
!LO:N:n=2:vis=2:head=rhombus:harmonic	!
12rbb\L 12reee 12bbb	.
!LO:N:n=2:vis=2:head=rhombus:harmonic	!
12rccc#\ 12rfff# 12cccc#	.
!LO:N:n=2:vis=2:head=rhombus:harmonic	!
12rddd\J 12rggg 12dddd	.
!LO:N:n=2:vis=2:head=rhombus:harmonic	!
4rccc#\ 4fff# 4cccc#	.
!LO:N:n=2:vis=2:head=rhombus:harmonic	!
4rbb\ 4reee 4bbb	.
=229	=229
!LO:N:n=1:vis=2:head=rhombus:harmonic	!
8rfff#\L 8cccc#	.
!LO:N:n=1:vis=2:head=rhombus:harmonic	!
8rddd\J 8aaa	.
!LO:N:n=1:vis=2:head=rhombus:harmonic	!
2raaaT<\ 2eeee	.
=230	=230
!LO:N:n=2:vis=2:head=rhombus:harmonic	!
12rbb\L 12reee 12bbb	.
!LO:N:n=2:vis=2:head=rhombus:harmonic	!
12rccc#\ 12rfff# 12cccc#	.
!LO:N:n=2:vis=2:head=rhombus:harmonic	!
12rddd\J 12rggg 12dddd	.
!LO:N:n=2:vis=2:head=rhombus:harmonic	!
4rccc#\ 4rfff# 4cccc#	.
!LO:N:n=2:vis=2:head=rhombus:harmonic	!
4rbb\ 4reee 4bbb	.
=231	=231
!LO:N:n=1:vis=2:head=rhombus:harmonic	!
8rfff#\L 8cccc#	.
!LO:N:n=1:vis=2:head=rhombus:harmonic	!
8rddd\J 8aaa	.
!LO:N:n=1:vis=2:head=rhombus:harmonic	!
2raaT<\ 2eee	.
=232	=232
!LO:N:n=2:vis=2:head=rhombus:harmonic	!
12rbb\L 12reee 12bbb	.
!LO:N:n=2:vis=2:head=rhombus:harmonic	!
12rccc#\ 12rfff# 12cccc#	.
!LO:N:n=2:vis=2:head=rhombus:harmonic	!
12rddd\J 12rggg 12dddd	.
!LO:N:n=2:vis=2:head=rhombus:harmonic	!
4rccc#\ 4rfff# 4cccc#	.
!LO:N:n=2:vis=2:head=rhombus:harmonic	!
4rbb\ 4rggg 4bbb	.
=233	=233
!LO:N:n=1:vis=2:head=rhombus:harmonic	!
12rfff#\L 12cccc#	.
!LO:TX:b:i:t=rallent.	!
!LO:N:n=1:vis=2:head=rhombus:harmonic	!
12rddd\ 12aaa	.
!LO:N:n=1:vis=2:head=rhombus:harmonic	!
12rfff#\J 12cccc#	.
!LO:N:n=1:vis=2:head=rhombus:harmonic	!
2raaaT<\ 2eeee	.
*X8va	*
!LO:LB:g=original	!
=234	=234
*8va	*
!LO:N:n=2:vis=2:head=rhombus:harmonic	!
12rbb\L 12reee 12bbb	.
!LO:N:n=2:vis=2:head=rhombus:harmonic	!
12rccc#\ 12rfff# 12cccc#	.
!LO:N:n=2:vis=2:head=rhombus:harmonic	!
12rddd\J 12rggg 12dddd	.
!LO:N:n=2:vis=2:head=rhombus:harmonic	!
4rccc#\ 4rfff# 4cccc#	.
!LO:N:n=2:vis=2:head=rhombus:harmonic	!
4rbb\ 4reee 4bbb	.
=235	=235
!LO:N:n=1:vis=2:head=rhombus:harmonic	!
2.rdddT<\ [2.aaa	.
=236	=236
!LO:N:n=1:vis=2:head=rhombus:harmonic	!
2.rdddT<\ 2.aaa_	.
=237	=237
!LO:N:n=1:vis=2:head=rhombus:harmonic	!
2.rdddT<\ 2.aaa]	.
*X8va	*
=238||	=238||
*k[fncnb-]	*
!LO:TX:t=P:problem: znaki przykluczowe kolejno: ffn ccn b-	!
!LO:TX:a:B:t=Più Lento.	!
!LO:TX:a:t=4te._:dur=11e2q5h:ext=ud:problem:text with line extensions	!
8d/L	.
8f/J	.
2a/	.
=239	=239
8g/L	.
8g/J	.
2a/	.
=240	=240
12d/L	.
(12e/	.
12f/J)	.
4a/	.
4f/	.
=241	=241
2.e/	.
=242	=242
8d/L	.
8f/J	.
2a/	.
=243	=243
8g/L	.
8g/J	.
2a/	.
!LO:LB:g=original	!
=244	=244
!LO:TX:a:t=4te._:dur=15e2s10q4h:ext=ud:problem:text with line extensions	!
(12e/L	.
12f/)	.
12g/J	.
4a/	.
4f/	.
=245	=245
2.e/	.
=246	=246
12e/L	.
(12f/	.
12g/J)	.
4f/	.
4e/	.
=247	=247
8.dM</L	.
16c#X/Jk	.
2d/	.
=248	=248
8A/L	.
8c#X/J	.
4e/	.
4a/	.
=249	=249
2.a/	.
=250	=250
12e/L	.
(12f/	.
12g/J)	.
4f/	.
4e/	.
=251	=251
8.d/L	.
16c#X/Jk	.
2d/	.
=252	=252
8c#X/L	.
8e/J	.
4Bn/	.
4c#/	.
!LO:LB:g=original	!
=253	=253
!LO:TX:a:t=4te._:dur=5h18e10q2s:ext=ud:problem:text with line extensions	!
2.A/	.
=254	=254
12e/L	.
(12f/	.
12g/J)	.
4f/	.
4e/	.
=255	=255
8.dM</L	.
!LO:N:vis=8	!
16c#X/Jk	.
2d/	.
=256	=256
8A/L	.
8c#X/J	.
4e/	.
4a/	.
=257	=257
!LO:TX:t=P:problem: 2 zapisana ołówkiem	!
!LO:TX:b:t=2:color=grey	!
2.a/	.
=258	=258
!LO:TX:t=P:problem: 2 zapisana ołówkiem	!
!LO:TX:b:t=2:color=grey	!
12a/L	.
12b-/	.
12cc/J	.
4b-\	.
4a/	.
=259	=259
8.gM</L	.
16f#X/Jk	.
2g/	.
=260	=260
!LO:TX:t=P:problem: 1 zapisana ołówkiem	!
!LO:TX:b:t=1:color=grey	!
12g/L	.
(12a/	.
12b-/J)	.
4a/	.
4g/	.
=261	=261
!LO:TX:t=P:problem: 2 zapisana ołówkiem	!
!LO:TX:b:t=2:color=grey	!
8.fM</L	.
16e/Jk	.
2f/	.
=262	=262
12e/L	.
12f/	.
12g/J	.
4f/	.
4e/	.
!LO:LB:g=original	!
=263	=263
!LO:TX:a:t=4te._:dur=2e:ext=ud:problem:text with line extensions	!
!LO:TX:t=P:problem: 2 zapisana ołówkiem	!
!LO:TX:b:t=2:color=grey	!
8d/L	.
8c#X/J	.
4.d/	.
!LO:TX:a:t=rallent._:dur=4e2q1h:ext=ud:problem:text with line extensions	!
8B-/	.
=264	=264
12A/L	.
12G#X/	.
12A/J	.
4f/	.
4e/	.
=265	=265
2d/	.
4r	.
=266||	=266||
*k[bnf#c#]	*
*^	*
*tuplet	*	*
!LO:TX:a:B:t=Più mosso.	!	!
12A/L 12e	4ryy	f
12A/ 12e	.	.
12A/J 12e	.	.
4A/ 4e	4ryy	.
8c#/L 8e	8ryy	.
!	!LO:TX:t=P:problem: VHV błędnie wyświetla unisono	!
8e/J	8e/	.
=267	=267	=267
12d/L 12a	4ryy	.
12d/ 12a	.	.
12d/J 12a	.	.
4d/ 4a	4ryy	.
8f#/L 8a	8ryy	.
!	!LO:TX:t=P:problem: VHV błędnie wyświetla unisono	!
8a/J	8a/	.
=268	=268	=268
!LO:TUP:a	!	!
12a\L 12ee	4ryy	.
12a\ 12ee	.	.
12a\J 12ee	.	.
4a\ 4ee	4ryy	.
8cc#\L 8ee	8ryy	.
!	!LO:TX:t=P:problem: VHV błędnie wyświetla unisono	!
8ee\J	8ee\	.
=269	=269	=269
!LO:TUP:a	!	!
12dd\L 12aa	4ryy	.
12dd\ 12aa	.	.
12dd\J 12aa	.	.
4dd\ 4aa	4ryy	.
8ff#\L 8aa	8ryy	.
!	!LO:TX:t=P:problem: VHV błędnie wyświetla unisono	!
8aa\J	8aa\	.
*v	*v	*
!LO:LB:g=original	!
=270	=270
(8aa\L	.
8ccc#\J	.
4eee\	.
4fff#\)	.
=271	=271
(2ddd\	.
8bb\L	.
8gg\J)	.
=272	=272
(8ff#\L	.
8aa\J	.
4ee\	.
4ff#\)	.
=273	=273
(2dd\	.
8b/L	.
8g/J)	.
=274	=274
(8f#/L	.
8a/J	.
4e/	.
4f#/)	.
=275	=275
2d/	.
8c#/L	.
8B/J	.
=276	=276
*^	*
12A/L 12e	4ryy	.
12A/ 12e	.	.
12A/J 12e	.	.
4A/ 4e	4ryy	.
8c#/L 8e	8ryy	.
!	!LO:TX:t=P:problem: VHV błędnie wyświetla unisono	!
8e/J	8e/	.
=277	=277	=277
12d/L 12a	4ryy	.
12d/ 12a	.	.
12d/J 12a	.	.
4d/ 4a	4ryy	.
8f#/L 8a	8ryy	.
!	!LO:TX:t=P:problem: VHV błędnie wyświetla unisono	!
8a/J	8a/	.
!LO:LB:g=original	!	!
=278	=278	=278
!LO:TUP:a	!	!
12a\L 12ee	4ryy	.
12a\ 12ee	.	.
12a\J 12ee	.	.
4a\ 4ee	4ryy	.
8cc#\L 8ee	8ryy	.
!	!LO:TX:t=P:problem: VHV błędnie wyświetla unisono	!
8ee\J	8ee\	.
=279	=279	=279
!LO:TUP:a	!	!
12dd\L 12aa	4ryy	.
12dd\ 12aa	.	.
12dd\J 12aa	.	.
4dd\ 4aa	4ryy	.
8ff#\L 8aa	8ryy	.
!	!LO:TX:t=P:problem: VHV błędnie wyświetla unisono	!
8aa\J	8aa\	.
*v	*v	*
=280	=280
(8aa\L	.
8ccc#\J	.
4eee\	.
4fff#\)	.
=281	=281
(2ddd\	.
8bb\L	.
8gg\J)	.
=282	=282
(8ff#\L	.
8aa\J	.
4ee\	.
4ff#\)	.
=283	=283
(2dd\	.
8b/L	.
8g/J)	.
=284	=284
(8f#/L	.
8a/J	.
4e/	.
4f#/)	.
=285	=285
2.d/	.
!LO:LB:g=original	!
=286	=286
(8f#/L	.
8a/J	.
4e/	.
4f#/)	.
=287	=287
!	!LO:HP:a:t=dimin.
2.d/	>
=288	=288
(8f#/L	.
8a/J	.
4e/	.
8g/L	.
8f#/J)	.
=289	=289
[2.d/	.
=290	=290
2.d/_	.
=291	=291
2.d;/]	.
=292||	=292||
*^	*
!LO:TX:a:B:t=Più presto.	!	!
12A/L 12e	4ryy	ff
12A/ 12e	.	.
12A/J 12e	.	.
4A/ 4e	4ryy	.
8c#/L 8e	8ryy	.
!	!LO:TX:t=P:problem: VHV błędnie wyświetla unisono	!
8e/J	8e/	.
=293	=293	=293
12d/L 12a	4ryy	.
12d/ 12a	.	.
12d/J 12a	.	.
4d/ 4a	4ryy	.
8f#/L 8a	8ryy	.
!	!LO:TX:t=P:problem: VHV błędnie wyświetla unisono	!
8a/J	8a/	.
=294	=294	=294
!LO:TUP:a	!	!
12a\L 12ee	4ryy	.
12a\ 12ee	.	.
12a\J 12ee	.	.
4a\ 4ee	4ryy	.
8cc#\L 8ee	8ryy	.
!	!LO:TX:t=P:problem: VHV błędnie wyświetla unisono	!
8ee\J	8ee\	.
*v	*v	*
=295	=295
4dd\	.
!LO:TX:b:B:t=Fine.	!
4d\ 4ff# 4ddd	.
4r	.
==	==
*-	*-
!!!RDF**kern: > = above
!!!RDF**kern: < = below
!!!ENC: Andrzej Gręziak
!!!END: 2022-08-06
!!!ENC: Jan Barakat
!!!END: 2022-08-21
!!!YEC: Copyright 2022 Narodowy Instytut Fryderyka Chopina (https://polishscores.org)
!!!YEM: License CC-BY-4.0 (https://creativecommons.org/licenses/by/4.0)
